docs/.gitbook/assets/icon-livestream-disabled-01-16@light.svg

<svg width="32" height="32" viewBox="0 0 16 16" fill="none" xmlns="http://www.w3.org/2000/svg">
<rect x="0" y="0" width="16" height="16" fill="#fff"/>
<path fill-rule="evenodd" clip-rule="evenodd" d="M1.21967 1.21967C1.51256 0.926777 1.98744 0.926777 2.28033 1.21967L10.2061 9.14546C10.7099 8.22816 10.5662 7.06213 9.77341 6.28591C9.47743 5.99613 9.47241 5.52128 9.76219 5.22531C10.052 4.92933 10.5268 4.92431 10.8228 5.21409C12.2152 6.57738 12.3728 8.69781 11.2934 10.2327L12.3186 11.258C14.0225 9.19741 13.8837 6.19867 11.8996 4.29059C11.601 4.00348 11.5917 3.52869 11.8788 3.23013C12.1659 2.93157 12.6407 2.92229 12.9393 3.20941C15.5295 5.70035 15.6784 9.66229 13.383 12.3224L14.7803 13.7197C15.0732 14.0126 15.0732 14.4874 14.7803 14.7803C14.4874 15.0732 14.0126 15.0732 13.7197 14.7803L1.21967 2.28033C0.926777 1.98744 0.926777 1.51256 1.21967 1.21967ZM2.28209 5.4564C2.67523 5.58681 2.88822 6.01124 2.75781 6.40439C2.15908 8.20931 2.60154 10.268 4.10045 11.7094C4.39901 11.9965 4.40829 12.4713 4.12117 12.7699C3.83406 13.0684 3.35928 13.0777 3.06072 12.7906C1.13746 10.9411 0.556826 8.27527 1.33409 5.93212C1.46451 5.53897 1.88894 5.32598 2.28209 5.4564ZM4.67358 7.72119C5.08324 7.66 5.46495 7.94249 5.52615 8.35216C5.60026 8.84826 5.83199 9.32774 6.22659 9.71409C6.52257 10.0039 6.52759 10.4787 6.23781 10.7747C5.94803 11.0707 5.47318 11.0757 5.17721 10.7859C4.54382 10.1658 4.16387 9.38553 4.04261 8.57377C3.98141 8.1641 4.26391 7.78239 4.67358 7.72119Z" fill="#000"/>
</svg>

<svg xmlns="http://www.w3.org/2000/svg" width="32" height="32" fill="none" viewBox="0 0 16 16"><path fill="#fff" d="M0 0h16v16H0z"/><path fill="#000" fill-rule="evenodd" d="M1.22 1.22a.75.75 0 0 1 1.06 0l7.926 7.925a2.384 2.384 0 0 0-.433-2.86.75.75 0 1 1 1.05-1.07 3.88 3.88 0 0 1 .47 5.018l1.026 1.025c1.704-2.06 1.565-5.06-.42-6.967a.75.75 0 1 1 1.04-1.082c2.59 2.491 2.74 6.453.444 9.113l1.397 1.398a.75.75 0 1 1-1.06 1.06L1.22 2.28a.75.75 0 0 1 0-1.06m1.062 4.236a.75.75 0 0 1 .476.948C2.159 8.21 2.602 10.268 4.1 11.71a.75.75 0 0 1-1.04 1.082C1.138 10.94.558 8.275 1.335 5.932a.75.75 0 0 1 .948-.476m2.392 2.265a.75.75 0 0 1 .852.631c.074.496.306.976.7 1.362a.75.75 0 1 1-1.049 1.072 3.9 3.9 0 0 1-1.134-2.212.75.75 0 0 1 .63-.853" clip-rule="evenodd"/></svg>
